src/assets/images/icons/instagram-icon.svg

<svg width="47" height="47" viewBox="0 0 47 47" fill="none" xmlns="http://www.w3.org/2000/svg">
<path d="M23.5103 11.5958C16.9267 11.5958 11.6164 16.9061 11.6164 23.4897C11.6164 30.0733 16.9267 35.3836 23.5103 35.3836C30.0939 35.3836 35.4043 30.0733 35.4043 23.4897C35.4043 16.9061 30.0939 11.5958 23.5103 11.5958ZM23.5103 31.2223C19.2558 31.2223 15.7777 27.7545 15.7777 23.4897C15.7777 19.2249 19.2455 15.7571 23.5103 15.7571C27.7751 15.7571 31.2429 19.2249 31.2429 23.4897C31.2429 27.7545 27.7648 31.2223 23.5103 31.2223ZM38.665 11.1092C38.665 12.6516 37.4228 13.8834 35.8908 13.8834C34.3484 13.8834 33.1166 12.6413 33.1166 11.1092C33.1166 9.5772 34.3587 8.33501 35.8908 8.33501C37.4228 8.33501 38.665 9.5772 38.665 11.1092ZM46.5425 13.9249C46.3666 10.2086 45.5177 6.91685 42.7953 4.20474C40.0832 1.49263 36.7914 0.643799 33.0751 0.457471C29.2451 0.240088 17.7652 0.240088 13.9351 0.457471C10.2292 0.633447 6.93745 1.48228 4.21499 4.19438C1.49253 6.90649 0.654053 10.1983 0.467725 13.9145C0.250342 17.7446 0.250342 29.2245 0.467725 33.0545C0.643701 36.7707 1.49253 40.0625 4.21499 42.7747C6.93745 45.4868 10.2189 46.3356 13.9351 46.5219C17.7652 46.7393 29.2451 46.7393 33.0751 46.5219C36.7914 46.3459 40.0832 45.4971 42.7953 42.7747C45.5074 40.0625 46.3562 36.7707 46.5425 33.0545C46.7599 29.2245 46.7599 17.7549 46.5425 13.9249ZM41.5945 37.1641C40.7871 39.193 39.224 40.7561 37.1847 41.5739C34.131 42.785 26.8849 42.5055 23.5103 42.5055C20.1357 42.5055 12.8792 42.7747 9.83589 41.5739C7.80698 40.7665 6.2439 39.2034 5.42612 37.1641C4.21499 34.1104 4.49448 26.8643 4.49448 23.4897C4.49448 20.1151 4.22534 12.8586 5.42612 9.81528C6.23355 7.78638 7.79663 6.22329 9.83589 5.40552C12.8896 4.19438 20.1357 4.47388 23.5103 4.47388C26.8849 4.47388 34.1414 4.20474 37.1847 5.40552C39.2136 6.21294 40.7767 7.77603 41.5945 9.81528C42.8056 12.869 42.5261 20.1151 42.5261 23.4897C42.5261 26.8643 42.8056 34.1208 41.5945 37.1641Z" fill="#CCD6F6"/>
</svg>

<svg xmlns="http://www.w3.org/2000/svg" width="47" height="47" fill="none"><path fill="#CCD6F6" d="M23.51 11.596A11.875 11.875 0 0 0 11.616 23.49c0 6.583 5.31 11.894 11.894 11.894 6.584 0 11.894-5.31 11.894-11.894 0-6.584-5.31-11.894-11.894-11.894Zm0 19.626c-4.254 0-7.732-3.468-7.732-7.732 0-4.265 3.467-7.733 7.732-7.733 4.265 0 7.733 3.468 7.733 7.733s-3.478 7.732-7.733 7.732ZM38.665 11.11a2.768 2.768 0 0 1-2.774 2.774 2.768 2.768 0 0 1-2.774-2.774 2.774 2.774 0 0 1 5.548 0Zm7.877 2.816c-.175-3.716-1.024-7.008-3.747-9.72-2.712-2.712-6.004-3.561-9.72-3.748-3.83-.217-15.31-.217-19.14 0-3.706.176-6.998 1.025-9.72 3.737-2.722 2.712-3.56 6.004-3.747 9.72-.218 3.83-.218 15.31 0 19.14.176 3.717 1.025 7.008 3.747 9.72 2.722 2.713 6.004 3.562 9.72 3.748 3.83.217 15.31.217 19.14 0 3.716-.176 7.008-1.025 9.72-3.747 2.712-2.712 3.561-6.004 3.747-9.72.218-3.83.218-15.3 0-19.13Zm-4.948 23.24a7.829 7.829 0 0 1-4.41 4.409c-3.053 1.211-10.3.931-13.674.931-3.374 0-10.63.27-13.674-.931a7.829 7.829 0 0 1-4.41-4.41c-1.211-3.054-.932-10.3-.932-13.674 0-3.375-.269-10.631.932-13.675a7.829 7.829 0 0 1 4.41-4.41c3.054-1.21 10.3-.931 13.674-.931 3.375 0 10.631-.27 13.675.932a7.829 7.829 0 0 1 4.41 4.41c1.21 3.053.931 10.3.931 13.674 0 3.374.28 10.63-.932 13.674Z"/></svg>
